X:1
T:Babba-Lisas Hyfs'n
R:Hyfs
O:Dorotea,Lappland
Q:1/4=80
M:2/4
L:1/16
K:D
|:"_D"DDDD D2E2|FFFF F2G2| AAAA A2B2|"_A7"c6 d2|eeee e2d2|cccc c2B2|AAAA A2G2|"_D"F6 E2|DDDD D2E2|FFFF F2G2|AAAA A2B2|"_A7"c6 d2|eeee e2d2|cccc c2B2|A2^GA B2c2|"_D"d4 d4::"_D"A2dd d2A2|F2AA A2F2|D2dd d2F2|"_G"G6 F2|"_A7"E2ee e2d2|d2cc c2B2|B2AA A2G2|"_D"F6 A2|A2dd d2A2|F2AA A2F2|D2dd d2F2|"_G"G6 F2|"_A7"E2ee e2d2|d2cc c2B2|A2^GA B2c2|"_D"d4 d4:|

